icon-themes/sifr_svg/cmd/sc_printdefault.svg

<svg viewBox="0 0 16 16" xmlns="http://www.w3.org/2000/svg"><path d="m4 2v2h8v-2zm-2 3c-.554 0-1 .446-1 1v1h5c.5019841 0 1.0607616.1974919 1.4394531.5605469.5765821.4441885 1.1333843.940571 1.6757813 1.4394531h3.8847656v2h1c.554 0 1-.446 1-1v-4c0-.554-.446-1-1-1zm-2 3v1c0 2.209139 1.790861 4 4 4h2.8222656l-1.5097656 1.28125c-.18267.19029-.3125.46186-.3125.71875v1h.4140625.5859375c.30945 0 .55232-.09029.75-.28125l3.25-2.84375v-1.705078c-1.083465-.958134-2.166532-2.0680429-3.25-2.888672-.19768-.19095-.44055-.28125-.75-.28125h-.5859375-.4140625v1c0 .2568898.12983.52846.3125.71875l1.5097656 1.28125h-2.8222656c-1.104569 0-2-.895431-2-2v-1z" fill="#555753"/></svg>

<svg xmlns="http://www.w3.org/2000/svg" viewBox="0 0 16 16">
  <path
     style="fill:#555753"
     d="m 4,2 v 2 h 8 V 2 Z M 2,5 C 1.446,5 1,5.446 1,6 V 7 H 6 C 6.5019841,7 7.0607616,7.1974919 7.4394531,7.5605469 8.0160352,8.0047354 8.5728374,8.5011179 9.1152344,9 H 13 v 2 h 1 c 0.554,0 1,-0.446 1,-1 V 6 C 15,5.446 14.554,5 14,5 Z M 0,8 v 1 c 0,2.209139 1.790861,4 4,4 H 6.8222656 L 5.3125,14.28125 C 5.12983,14.47154 5,14.74311 5,15 v 1 H 5.4140625 6 c 0.30945,0 0.55232,-0.09029 0.75,-0.28125 L 10,12.875 V 11.169922 C 8.916535,10.211788 7.833468,9.1018791 6.75,8.28125 6.55232,8.0903 6.30945,8 6,8 H 5.4140625 5 V 9 C 5,9.2568898 5.12983,9.52846 5.3125,9.71875 L 6.8222656,11 H 4 C 2.895431,11 2,10.104569 2,9 V 8 Z"
     />
</svg>
